X:90
T: LANG GENUG HAB ICH GESCHWIEGEN
N: E0697
O: Europa, Mitteleuropa, Deutschland, Hessen, Odenwald
R: Liebes - Lied, Leid, Klage
M: 3/4
L: 1/16
K: Bb
F2GA | B6F2D2F2 | F2D2F4
B2d2 | c6A2c3G | G4F4
F2F2 | d6c2B2G2 | F4D2
F2B2c2 | d4d4c2c2 | B4z4

@@@ Tune index: 4403
